images/example4.svg

<svg width="140" height="90" viewBox="0 0 140 90" fill="none" xmlns="http://www.w3.org/2000/svg">
<path d="M36.9543 25.1695L18.8131 33L1.78814e-07 25.1695V7.83058L18.8131 8.99434e-05L36.9543 7.83058V25.1695Z" fill="white"/>
<path d="M36.9543 82.1695L18.8131 90L-7.15256e-07 82.1695V64.8306L18.8131 57.0001L36.9543 64.8306V82.1695Z" fill="white"/>
<path d="M78.1726 82.1695L60.0314 90L41.2183 82.1695V64.8306L60.0314 57.0001L78.1726 64.8306V82.1695Z" fill="white"/>
<path d="M119.391 82.1695L101.25 90L82.4365 82.1695V64.8306L101.25 57.0001L119.391 64.8306V82.1695Z" fill="white"/>
<path d="M140 53.3697L121.859 61.2002L103.046 53.3697V36.0308L121.859 28.2003L140 36.0308V53.3697Z" fill="white"/>
<path d="M98.7817 53.3697L80.6405 61.2002L61.8274 53.3697V36.0308L80.6405 28.2003L98.7817 36.0308V53.3697Z" fill="white"/>
<path d="M57.5634 53.3697L39.4222 61.2002L20.6091 53.3697V36.0308L39.4222 28.2003L57.5634 36.0308V53.3697Z" fill="white"/>
<path d="M119.391 25.1695L101.25 33L82.4365 25.1695V7.83058L101.25 8.99434e-05L119.391 7.83058V25.1695Z" fill="white"/>
<path d="M78.1726 25.1695L60.0314 33L41.2183 25.1695V7.83058L60.0314 8.99434e-05L78.1726 7.83058V25.1695Z" fill="white"/>
</svg>

<svg width="140" height="90" fill="none" xmlns="http://www.w3.org/2000/svg"><path d="M36.954 25.17 18.814 33 0 25.17V7.83L18.813 0l18.141 7.83v17.34ZM36.954 82.17 18.814 90 0 82.17V64.83L18.813 57l18.141 7.83v17.34ZM78.173 82.17 60.03 90l-18.813-7.83V64.83L60.031 57l18.142 7.83v17.34ZM119.391 82.17 101.25 90l-18.814-7.83V64.83L101.25 57l18.141 7.83v17.34ZM140 53.37l-18.141 7.83-18.813-7.83V36.03l18.813-7.83L140 36.03v17.34ZM98.782 53.37 80.64 61.2l-18.814-7.83V36.03l18.814-7.83 18.14 7.83v17.34ZM57.563 53.37l-18.14 7.83-18.814-7.83V36.03l18.813-7.83 18.141 7.83v17.34ZM119.391 25.17 101.25 33l-18.814-7.83V7.83L101.25 0l18.141 7.83v17.34ZM78.173 25.17 60.03 33l-18.813-7.83V7.83L60.031 0l18.142 7.83v17.34Z" fill="#fff"/></svg>
